packages/kaspersky-hexa-ui-icons/src/iconsSVGs/16/AppsGrid.svg

<svg width="16" height="16" viewBox="0 0 16 16" fill="none" xmlns="http://www.w3.org/2000/svg">
<path fill-rule="evenodd" clip-rule="evenodd" d="M1.47705 3.10532C1.47705 2.19405 2.21578 1.45532 3.12705 1.45532H5.72893C6.6402 1.45532 7.37893 2.19405 7.37893 3.10532V5.72565C7.37893 6.63692 6.6402 7.37565 5.72893 7.37565H3.12705C2.21578 7.37565 1.47705 6.63692 1.47705 5.72565V3.10532ZM3.12705 2.75532C2.93375 2.75532 2.77705 2.91202 2.77705 3.10532V5.72565C2.77705 5.91895 2.93375 6.07565 3.12705 6.07565H5.72893C5.92223 6.07565 6.07893 5.91895 6.07893 5.72565V3.10532C6.07893 2.91202 5.92223 2.75532 5.72893 2.75532H3.12705Z" fill="black"/>
<path fill-rule="evenodd" clip-rule="evenodd" d="M10.2931 1.45532C9.3818 1.45532 8.64307 2.19405 8.64307 3.10532V5.72565C8.64307 6.63692 9.3818 7.37565 10.2931 7.37565H12.8949C13.8062 7.37565 14.5449 6.63692 14.5449 5.72565V3.10532C14.5449 2.19405 13.8062 1.45532 12.8949 1.45532H10.2931ZM9.94307 3.10532C9.94307 2.91202 10.0998 2.75532 10.2931 2.75532H12.8949C13.0882 2.75532 13.2449 2.91202 13.2449 3.10532V5.72565C13.2449 5.91895 13.0882 6.07565 12.8949 6.07565H10.2931C10.0998 6.07565 9.94307 5.91895 9.94307 5.72565V3.10532Z" fill="black"/>
<path fill-rule="evenodd" clip-rule="evenodd" d="M10.2721 8.62427C9.3608 8.62427 8.62207 9.363 8.62207 10.2743V12.8946C8.62207 13.8059 9.3608 14.5446 10.2721 14.5446H12.874C13.7852 14.5446 14.524 13.8059 14.524 12.8946V10.2743C14.524 9.363 13.7852 8.62427 12.874 8.62427H10.2721ZM9.92207 10.2743C9.92207 10.081 10.0788 9.92427 10.2721 9.92427H12.874C13.0673 9.92427 13.224 10.081 13.224 10.2743V12.8946C13.224 13.0879 13.0673 13.2446 12.874 13.2446H10.2721C10.0788 13.2446 9.92207 13.0879 9.92207 12.8946V10.2743Z" fill="black"/>
<path fill-rule="evenodd" clip-rule="evenodd" d="M3.10557 8.62427C2.1943 8.62427 1.45557 9.363 1.45557 10.2743V12.8946C1.45557 13.8059 2.1943 14.5446 3.10557 14.5446H5.70745C6.61872 14.5446 7.35745 13.8059 7.35745 12.8946V10.2743C7.35745 9.363 6.61872 8.62427 5.70745 8.62427H3.10557ZM2.75557 10.2743C2.75557 10.081 2.91227 9.92427 3.10557 9.92427H5.70745C5.90075 9.92427 6.05745 10.081 6.05745 10.2743V12.8946C6.05745 13.0879 5.90075 13.2446 5.70745 13.2446H3.10557C2.91227 13.2446 2.75557 13.0879 2.75557 12.8946V10.2743Z" fill="black"/>
</svg>

<svg xmlns="http://www.w3.org/2000/svg" width="16" height="16" fill="none" viewBox="0 0 16 16"><path fill="#000" fill-rule="evenodd" d="M1.477 3.1054c0-.9113.7387-1.65 1.65-1.65h2.6018c.9113 0 1.65.7387 1.65 1.65v2.6203c0 .9112-.7387 1.65-1.65 1.65H3.1269c-.9112 0-1.65-.7388-1.65-1.65zm8.8159-1.65c-.9112 0-1.65.7387-1.65 1.65v2.6203c0 .9112.7388 1.65 1.65 1.65h2.6019c.9113 0 1.65-.7388 1.65-1.65V3.1054c0-.9113-.7387-1.65-1.65-1.65zm-7.166 1.3a.35.35 0 0 0-.35.35v2.6203a.35.35 0 0 0 .35.35h2.6019a.35.35 0 0 0 .35-.35V3.1054a.35.35 0 0 0-.35-.35zm6.816.35a.35.35 0 0 1 .35-.35h2.6019a.35.35 0 0 1 .35.35v2.6203a.35.35 0 0 1-.35.35h-2.6019a.35.35 0 0 1-.35-.35zM3.1054 8.6243c-.9112 0-1.65.7387-1.65 1.65v2.6203c0 .9113.7388 1.65 1.65 1.65h2.602c.9112 0 1.65-.7387 1.65-1.65v-2.6203c0-.9113-.7388-1.65-1.65-1.65zm7.1665 0c-.9112 0-1.65.7387-1.65 1.65v2.6203c0 .9113.7388 1.65 1.65 1.65h2.6019c.9113 0 1.65-.7387 1.65-1.65v-2.6203c0-.9113-.7387-1.65-1.65-1.65zm-7.5165 1.65a.35.35 0 0 1 .35-.35h2.602a.35.35 0 0 1 .35.35v2.6203a.35.35 0 0 1-.35.35h-2.602a.35.35 0 0 1-.35-.35zm7.1665 0a.35.35 0 0 1 .35-.35h2.6019a.35.35 0 0 1 .35.35v2.6203a.35.35 0 0 1-.35.35h-2.6019a.35.35 0 0 1-.35-.35z"/></svg>
